packages/kaspersky-hexa-ui-icons/src/iconsSVGs/24/WholeWord.svg

<svg width="24" height="24" viewBox="0 0 24 24" fill="none" xmlns="http://www.w3.org/2000/svg">
<path d="M3.37878 10.5036L5.11505 8.09462C5.11505 8.09462 5.34074 7.79188 5.67364 7.95399C6.00654 8.1161 5.91583 8.44618 5.91583 8.44618L5.32828 10.2492C5.73311 10.5178 6 10.9778 6 11.5C6 12.3284 5.32843 13 4.5 13C3.67157 13 3 12.3284 3 11.5C3 11.1175 3.14314 10.7685 3.37878 10.5036Z" fill="black"/>
<path d="M9.99841 11.5C9.99841 12.3284 9.32684 13 8.49841 13C7.66999 13 6.99841 12.3284 6.99841 11.5C6.99841 11.1175 7.14156 10.7685 7.37719 10.5036L9.11346 8.09462C9.11346 8.09462 9.33915 7.79188 9.67205 7.95399C10.005 8.1161 9.91424 8.44618 9.91424 8.44618L9.32669 10.2492C9.73152 10.5178 9.99841 10.9778 9.99841 11.5Z" fill="black"/>
<path d="M18 12.5C18 11.6716 18.6716 11 19.5 11C20.3284 11 21 11.6716 21 12.5C21 12.8825 20.8569 13.2315 20.6212 13.4964L18.885 15.9054C18.885 15.9054 18.6593 16.2081 18.3264 16.046C17.9935 15.8839 18.0842 15.5538 18.0842 15.5538L18.6717 13.7508C18.2669 13.4822 18 13.0222 18 12.5Z" fill="black"/>
<path d="M14.0016 12.5C14.0016 11.6716 14.6732 11 15.5016 11C16.33 11 17.0016 11.6716 17.0016 12.5C17.0016 12.8825 16.8584 13.2315 16.6228 13.4964L14.8865 15.9054C14.8865 15.9054 14.6608 16.2081 14.3279 16.046C13.995 15.8839 14.0858 15.5538 14.0858 15.5538L14.6733 13.7508C14.2685 13.4822 14.0016 13.0222 14.0016 12.5Z" fill="black"/>
</svg>

<svg xmlns="http://www.w3.org/2000/svg" width="24" height="24" fill="none" viewBox="0 0 24 24"><path fill="#000" fill-rule="evenodd" d="M3.3788 10.5035 5.115 8.0946s.2257-.3027.5586-.1406c.333.1621.2422.4922.2422.4922l-.5875 1.803C5.733 10.5178 6 10.9777 6 11.5c0 .8284-.6716 1.5-1.5 1.5S3 12.3284 3 11.5c0-.3825.1431-.7315.3788-.9965m6.6196.9965c0 .8284-.6716 1.5-1.5 1.5s-1.5-.6716-1.5-1.5c0-.3825.1432-.7315.3788-.9965l1.7363-2.4089s.2257-.3027.5586-.1406.2421.4922.2421.4922l-.5875 1.803c.4048.2686.6717.7285.6717 1.2508m4.0032 1c0-.8284.6716-1.5 1.5-1.5s1.5.6716 1.5 1.5c0 .3825-.1432.7315-.3788.9965l-1.7363 2.4089s-.2256.3027-.5586.1406-.2421-.4922-.2421-.4922l.5875-1.803c-.4048-.2686-.6717-.7286-.6717-1.2508M18 12.5c0-.8284.6716-1.5 1.5-1.5s1.5.6716 1.5 1.5c0 .3825-.1431.7315-.3788.9965l-1.7362 2.4089s-.2257.3027-.5586.1406-.2422-.4922-.2422-.4922l.5875-1.803C18.2669 13.4822 18 13.0222 18 12.5"/></svg>
